src/main/webapp/scripts/pdfjs/v54530/web/images/messageBar_warning.svg

<svg fill="none" height="16" viewBox="0 0 16 16" width="16" xmlns="http://www.w3.org/2000/svg"><path d="m14.8748 12.037-5.49698-10c-.381-.691-1.067-1.037-1.753-1.037s-1.372.346-1.752 1.037l-5.496997 10c-.734 1.333.231 2.963 1.751997 2.963h10.99498c1.52 0 2.485-1.63 1.752-2.963zm-6.62498-.287-.25.25h-.75l-.25-.25v-.75l.25-.25h.75l.25.25zm0-2.688c0 .16576-.06584.32473-.18305.44194-.11722.11721-.27619.18306-.44195.18306s-.32473-.06585-.44194-.18306-.18306-.27618-.18306-.44194v-3.437c0-.16576.06585-.32473.18306-.44194s.27618-.18306.44194-.18306.32473.06585.44195.18306c.11721.11721.18305.27618.18305.44194z" fill="#000"/></svg>

<svg width="16" height="16" viewBox="0 0 16 16" fill="none" xmlns="http://www.w3.org/2000/svg">
    <path d="M14.8748 12.037L9.37782 2.037C8.99682 1.346 8.31082 1 7.62482 1C6.93882 1 6.25282 1.346 5.87282 2.037L0.375823 12.037C-0.358177 13.37 0.606823 15 2.12782 15H13.1228C14.6428 15 15.6078 13.37 14.8748 12.037ZM8.24982 11.75L7.99982 12H7.24982L6.99982 11.75V11L7.24982 10.75H7.99982L8.24982 11V11.75ZM8.24982 9.062C8.24982 9.22776 8.18398 9.38673 8.06677 9.50394C7.94955 9.62115 7.79058 9.687 7.62482 9.687C7.45906 9.687 7.30009 9.62115 7.18288 9.50394C7.06567 9.38673 6.99982 9.22776 6.99982 9.062V5.625C6.99982 5.45924 7.06567 5.30027 7.18288 5.18306C7.30009 5.06585 7.45906 5 7.62482 5C7.79058 5 7.94955 5.06585 8.06677 5.18306C8.18398 5.30027 8.24982 5.45924 8.24982 5.625V9.062Z" fill="black"/>
</svg>
